X: 11935
T: Empty Tomb, The
R: jig
M: 6/8
K: Dmajor
|:ABc ADD|ABc dcd|eag efg|fed cAG|
ABc ADD|ABc dcd|eag efg|1 fdc d2c:|2 fdc def||
|:gfe fed|cAB cde|dfa afa|bge eaf|
gfe fed|cAB cde|dcA GFG|1 Adc def:|2 Adc d2c||

